X:318
T:Morning Star - Bledington
M:4/4
L:1/8
K:G
BcBG E2 FG | ABAF D2 GA | BcBG E2 AF | D2 G2 G4 :|
B2 B2 d2 d2 | egfe dcBA | GABc d2 d2 | efge d4 |
GABc d2 d2 | egfe dB G2 | ABcA F2 AF | D2 G2 G4 :|
